X:58
T:Duke of York’s Troop. RH.058
R:waltz (with bugle intro)
S:Rev.R.Harrison’s MS,c1815,Cumbria
O:England
A:Temple Sowerby,Cumbria
Z:vmp.Simon Wilson. Review PJH, 2008.
M:3/8
M:C
L:1/16
Q:3/8=60
K:D
d4f4|a4f4|a4f4|a4f4|e4d4|e4f4|d8||\
(3abc’|(d’a)(d’a) d’afd afaf afdA|!
fdfd fdAF dAdA DAFD|A4A2A2 A2A2A2A2|A12||!
M:3/8
(3abc’|d’2a2a2|a3bag|f2d2d2|d3fed|\
(c2e2).e2|d2f2a2|a2f2d2|{f}e3(abc’)|!
d’2a2a2|a3bag|f2d2d2|d4a2|\
b2(d’b)(d’b)|a2(fa)(fa)|g2e2c2|d4:|!
|:d2|(c2e2).e2|(d2e2).e2|(e2f2).f2|f3gfd|\
c2(ec)(ec)|d2fdfd|e2(ge)(ge)|f4(3abc’|!
d’2a2a2|a3bag|f2d2d2|d4a2|\
babc’d’b|c’d’e’c’d’a|g2e2c2|d6:|!
|(f2a2).a2|^a2b2b2|(e2g2).g2|(^g2a2)b2|\
(d2c2)e2|d4fa|(d’a)(d’a)fd|a6|!
(f2a2).a2|(^a2b2).b2|(e2g2).g2|(^g2a2).a2|\
(d’c’)(d’c’)b^a|bagfed|(fa)fdec|d6|]

